svgs/regular/video-plus.svg

<svg xmlns="http://www.w3.org/2000/svg" viewBox="0 0 576 512"><!--! Font Awesome Pro 6.0.0-alpha3 by @fontawesome - https://fontawesome.com License - https://fontawesome.com/license (Commercial License) --><path d="M557.6 102.3c-11.53-7.406-25.88-8.391-38.28-2.688L416 147V128c0-35.35-28.65-64-64-64H64C28.65 64 0 92.65 0 128v256c0 35.35 28.65 64 64 64h288c35.35 0 64-28.65 64-64v-19.02l103.3 47.36c5.344 2.453 11.03 3.672 16.69 3.672c7.531 0 15.02-2.141 21.59-6.359C569.1 402.3 576 389.7 576 375.1V136C576 122.3 569.1 109.8 557.6 102.3zM368 384c0 8.822-7.178 16-16 16H64c-8.822 0-16-7.178-16-16V128c0-8.822 7.178-16 16-16h288c8.822 0 16 7.178 16 16V384zM528 363.5L416 312.2V199.8l112-51.33V363.5zM288 232H231.1V175.1C231.1 162.7 221.3 152 208 152S184 162.7 184 175.1V232H127.1C114.7 232 104 242.7 104 256c0 13.26 10.73 23.1 23.1 23.1H184v56C184 349.3 194.7 360 208 360c13.26 0 23.1-10.74 23.1-23.1V279.1h56C301.3 279.1 312 269.3 312 256S301.3 232 288 232z"/></svg>

<svg xmlns="http://www.w3.org/2000/svg" viewBox="0 0 576 512"><!-- Font Awesome Pro 6.0.0-alpha2 by @fontawesome - https://fontawesome.com License - https://fontawesome.com/license (Commercial License) --><path d="M557.609 102.344C546.078 94.938 531.734 93.953 519.328 99.656L416 147.016V128C416 92.654 387.346 64 352 64H64C28.654 64 0 92.654 0 128V384C0 419.346 28.654 448 64 448H352C387.346 448 416 419.346 416 384V364.984L519.328 412.344C524.672 414.797 530.359 416.016 536.016 416.016C543.547 416.016 551.031 413.875 557.609 409.656C569.125 402.25 576 389.672 576 375.984V136.016C576 122.328 569.125 109.75 557.609 102.344ZM368 384C368 392.822 360.822 400 352 400H64C55.178 400 48 392.822 48 384V128C48 119.178 55.178 112 64 112H352C360.822 112 368 119.178 368 128V384ZM528 363.516L416 312.182V199.818L528 148.484V363.516ZM288.002 232.002H231.998V175.998C231.998 162.738 221.258 152 208 152S184.002 162.738 184.002 175.998V232.002H127.998C114.738 232.002 104 242.742 104 256C104 269.256 114.73 279.998 127.998 279.998H184.002V336.002C184.002 349.258 194.734 360 208 360C221.258 360 231.998 349.262 231.998 336.002V279.998H288.002C301.262 279.998 312 269.258 312 256S301.262 232.002 288.002 232.002Z"/></svg>
